X: 39
T:Baudimic
R:Bourree
M:2/4
L:1/8
C:Gilles Chabenat
D:Gilles Chabenat 'Bleu Nuit'
D:Clays Chabenat Paris Decombel 'Live En Flandre' WBM21070
Z:Steve Mansfield
K:D
F>G AG/A/ | B>A GF |E>A BA- | AA BA |
D>E FD | G>F ED |1 EF GA- | AG/F/ ED :|2 AD ED- | D4 |
d>c Ac | BG EA- | AB c/B/A | Bc ed- | dc A>c |
BG DF- | FE DA | GE cd- | d>c Ac | BG EA- |AB c/B/A |
Bc ed- | dc A>c | BG ED- | DE FD | E2 A2 ||

% a small block of my own tunes

